app/assets/images/icons/eye.svg

<?xml version="1.0" encoding="UTF-8" standalone="no"?>
<svg width="30px" height="30px" viewBox="0 0 30 30" version="1.1" xmlns="http://www.w3.org/2000/svg" xmlns:xlink="http://www.w3.org/1999/xlink">
    <!-- Generator: Sketch 3.7.2 (28276) - http://www.bohemiancoding.com/sketch -->
    <title>eye</title>
    <desc>Created with Sketch.</desc>
    <defs></defs>
    <g id="Icons" stroke="none" stroke-width="1" fill="none" fill-rule="evenodd">
        <g id="eye" fill="#050505">
            <path d="M15,26 C24,26 28.946459,16.6826373 28.946459,16.6826373 C29.5283136,15.7533424 29.5183106,14.2439255 28.8861062,13.3293368 C28.8861062,13.3293368 23.5,4 15,4 C6.5,4 1.09680695,13.3531889 1.09680695,13.3531889 C0.4910572,14.2626975 0.460249655,15.7734986 1.06170561,16.6946432 C1.06170561,16.6946432 6,26 15,26 Z M9.79797363,7.43017574 C8.59160931,8.08959291 6.94479196,9.35299336 5.69763184,10.6861572 C4.60631992,11.8527256 3.61640476,13.0237746 3.08026123,13.8693847 C2.7165509,14.4430318 2.61895752,14.8873341 2.61895752,15 C2.61895753,16.0886572 4.47370941,18.5766554 6.6463623,20.5181885 C7.49749736,21.2787825 8.33640478,21.8443892 9.25720215,22.4227295 C11.7130257,23.9651987 14.1324011,24 15,24 C16.0645518,24 18.4785156,23.7915039 20.7122192,22.4227295 C21.5850024,21.8879033 23.26048,20.7672935 24.4080811,19.4425049 C26.197522,17.3767774 27.3731079,15.9237061 27.3731079,15 C27.3731079,14.6717438 26.8051147,13.0683594 23.4949951,9.93377686 C22.0274369,8.54404392 20.7399902,7.531311 18.5653687,6.66271973 C16.3907471,5.79412847 15,6 15,6 C15,6 12.776062,5.80230713 9.79797363,7.43017574 Z M15,22 C18.8659932,22 22,18.8659932 22,15 C22,11.1340068 18.8659932,8 15,8 C11.1340068,8 8,11.1340068 8,15 C8,18.8659932 11.1340068,22 15,22 Z M15,20 C17.7614237,20 20,17.7614237 20,15 C20,12.2385763 17.7614237,10 15,10 C12.2385763,10 10,12.2385763 10,15 C10,17.7614237 12.2385763,20 15,20 Z M11.0084876,15.2626823 C11.0028584,15.1758475 11,15.0882575 11,15 C11,12.790861 12.790861,11 15,11 C17.209139,11 19,12.790861 19,15 C19,17.209139 17.209139,19 15,19 C14.3610902,19 13.7571666,18.8502058 13.2214332,18.5838213 C13.6950013,18.21807 14,17.6446531 14,17 C14,15.8954305 13.1045695,15 12,15 C11.639211,15 11.3007348,15.0955328 11.0084876,15.2626823 L11.0084876,15.2626823 Z" id="Combined-Shape"></path>
        </g>
    </g>
</svg>

<?xml version="1.0" encoding="UTF-8" standalone="no"?>
<svg width="30" height="30" viewBox="0 0 30 30" xmlns="http://www.w3.org/2000/svg">
  <path d="M15 26c9 0 13.946-9.317 13.946-9.317.582-.93.572-2.44-.06-3.354C28.886 13.33 23.5 4 15 4S1.097 13.353 1.097 13.353c-.606.91-.637 2.42-.035 3.342C1.062 16.695 6 26 15 26zM9.798 7.43c-1.206.66-2.853 1.923-4.1 3.256-1.092 1.167-2.082 2.338-2.618 3.183-.363.574-.461 1.018-.461 1.131 0 1.089 1.855 3.577 4.027 5.518.851.76 1.69 1.326 2.611 1.905C11.713 23.965 14.132 24 15 24c1.065 0 3.479-.208 5.712-1.577.873-.535 2.548-1.656 3.696-2.98 1.79-2.066 2.965-3.52 2.965-4.443 0-.328-.568-1.932-3.878-5.066-1.468-1.39-2.755-2.403-4.93-3.271C16.391 5.794 15 6 15 6s-2.224-.198-5.202 1.43zM15 22a7 7 0 1 0 0-14 7 7 0 0 0 0 14zm0-2a5 5 0 1 0 0-10 5 5 0 0 0 0 10zm-3.992-4.737a4 4 0 1 1 2.213 3.321 2 2 0 1 0-2.213-3.321z" fill="#050505" fill-rule="evenodd"/>
</svg>
